icons/desktop/16/svg/fullscreen-exit-16.svg

<svg width="16" height="16" viewBox="0 0 16 16" fill="none" xmlns="http://www.w3.org/2000/svg">
<path d="M7.50124 8.9999C7.77715 9.00001 8.00124 9.22397 8.00124 9.4999V13.2929C8.00124 13.7378 7.46176 13.9622 7.14675 13.6474L5.77956 12.2802L2.28054 15.7802C2.13465 15.9259 1.943 15.9998 1.75124 15.9999C1.55931 15.9999 1.36598 15.9271 1.21999 15.7802C0.926994 15.4872 0.926994 15.0116 1.21999 14.7186L4.71902 11.2186L3.35378 9.85341C3.03932 9.53836 3.26245 8.9999 3.70828 8.9999H7.50124Z" fill="black"/>
<path d="M14.72 0.999897C15.0129 0.706981 15.4875 0.70715 15.7805 0.999897C16.0735 1.2929 16.0735 1.76744 15.7805 2.06044L12.1702 5.6708L13.6458 7.14541C13.9607 7.46036 13.7381 7.99973 13.2923 7.9999H9.49929C9.22331 7.9999 8.99932 7.77587 8.99929 7.4999V3.70693C8.99929 3.26208 9.53776 3.03791 9.85281 3.35244L11.1096 4.60927L14.72 0.999897Z" fill="black"/>
</svg>

<!-- This Source Code Form is subject to the terms of the Mozilla Public
   - License, v. 2.0. If a copy of the MPL was not distributed with this
   - file, You can obtain one at http://mozilla.org/MPL/2.0/. -->
<svg xmlns="http://www.w3.org/2000/svg" width="16" height="16" fill="context-fill" fill-opacity="context-fill-opacity" viewBox="0 0 16 16">
    <path d="M7.5 9a.5.5 0 0 1 .5.5v3.793a.5.5 0 0 1-.854.355L5.78 12.28 2.062 16 1 14.94l3.719-3.72-1.366-1.366A.5.5 0 0 1 3.707 9zM16 2.06l-3.72 3.72 1.367 1.366a.5.5 0 0 1-.354.854H9.5a.5.5 0 0 1-.5-.5V3.707a.5.5 0 0 1 .854-.354l1.366 1.366L14.94 1z" />
</svg>
